X:886
T:Tobar Mo Bheatha
R:Strathspey
C:James Stewart-Robertson
B:The Athole Collection
M:C
L:1/8
K:D
f/e/|d>BA>F D>FA>f|d>BA>F B<E E>e|d>BA>F d>ef>e|d>BA>F A<DD:|
|:f|d>fe>f d/e/f/g/ a<f|d>fe>f e<E E>e|1 d>fe>f d/e/f/g/ a<f|d>BA>F A<DD:|2
d>ef>e d>fe>f|d>BA>F A<DD||

